X:1
T:Title
%%score 1 { ( 2 4 6 ) | ( 3 5 7 ) }
L:1/8
M:4/4
K:G
V:1 treble nm="Akkordion"
V:2 treble nm="Grand Piano"
V:4 treble 
V:6 treble 
V:3 bass 
V:5 bass 
V:7 bass 
V:1
 z4 z2[Q:1/4=100] B>c | d2 B>A G2 D2 | E>F G>E D2 G>A | B2 B2 A2 G2 | A6 B>c | d2 B>A G2 D2 | %6
 E>F G>E D2 d2 | e d3 B3 A |[M:3/4] G4 z2 |[M:1/4] z2 |[M:4/4] z8 | z8 | z8 | z8 | z8 | z8 | z8 | %17
[M:3/4] z6 |] %18
V:2
 z8 | z2 G2 G2 G2 | z2 G2 G,,2[K:treble] [B,DG]2 | z [GB]2 A- A G3 | [DFA]6 z2 | z2 G2 G2 G2 | %6
 z2 G2 G,,2[K:treble] [B,DG]2 | [B,DG]4 [DGB]2 [CFA]2 |[M:3/4] [B,DG]4 z2 |[M:1/4] G2 | %10
[M:4/4] [FA][FA][FA][FA] [FA]2 [EG][FA] | BBBA G2 GA | B2 d2 cBAG | [FA]6 Bc | d d3 B2 [DG]2 | %15
 [G,CE]>[G,DF] [G,EG]>[G,CE] [G,B,D]2 [B,DG][CDA] | [DB] [DGB]3 [CFA]2 [CFA]2 |[M:3/4] [B,G]6 |] %18
V:3
 z8 | z2 [B,D]2 [B,D]2 [B,D]2 | z2 [CE]2 z2 G,,2 | z D2 D- D [^CE]3 | [D,,D,]4- [D,,D,]C,B,,A,, | %5
 z2 [B,D]2 [B,D]2 [B,D]2 | z2 [CE]2 z2 G,,2 | [D,,D,]4 [D,,D,]2 [D,,D,]2 |[M:3/4] [G,,,G,,]4 z2 | %9
[M:1/4] [G,B,]2 |[M:4/4] [D,D][D,D][D,D][D,D] [D,D]2 [D,D][D,D] | %11
 [G,DG][G,DG][G,DG][G,CD] [G,B,D]2 [G,B,D][G,CD] | %12
 [G,DG]2 [G,B,G]2 [A,CF][G,DG][K:bass][F,D][E,^CE] | [D,D]6[K:treble] [G,G][G,A,G] | %14
 [G,B,G] [G,B,G]3 [G,DG]2[K:bass] B,,2 | C,>C, C,>C, G,,2 G,,G,, | D, D,3 D,2 D,2 |[M:3/4] G,,6 |] %18
V:4
 x8 | G,6 z2 | C,4 z4[K:treble] | z2 G,2 F,2 z2 | x8 | G,6 z2 | C,4 z4[K:treble] | x8 |[M:3/4] x6 | %9
[M:1/4] x2 |[M:4/4] x8 | x8 | x8 | x8 | x8 | x8 | x8 |[M:3/4] x6 |] %18
V:5
 x8 | G,,6 z2 | x8 | G,,2 G,,2 F,,2 z2 | x8 | G,,6 z2 | x8 | x8 |[M:3/4] x6 |[M:1/4] x2 | %10
[M:4/4] x8 | x8 | x6[K:bass] x2 | x6[K:treble] x2 | x6[K:bass] x2 | x8 | x8 |[M:3/4] x6 |] %18
V:6
 x8 | x8 | x6[K:treble] x2 | z4 z2 E,2 | x8 | x8 | x6[K:treble] x2 | x8 |[M:3/4] x6 |[M:1/4] x2 | %10
[M:4/4] x8 | x8 | x8 | x8 | x8 | x8 | x8 |[M:3/4] x6 |] %18
V:7
 x8 | x8 | x8 | z4 z2 E,,2 | x8 | x8 | x8 | x8 |[M:3/4] x6 |[M:1/4] x2 |[M:4/4] x8 | x8 | %12
 x6[K:bass] x2 | x6[K:treble] x2 | x6[K:bass] x2 | x8 | x8 |[M:3/4] x6 |] %18

